X: 081324
T: Hurlers' March
T: Humors of Ballyloughlin
S: "Ceol Rince na hEireann" 1/32
Z: B.Black
L: 1/8
M: 6/8
R: jig
K: Dmix
(3ABA A AGE|GED D3|cBc ded|cAG FED|
(3ABA A AGE|FG2 cGE|D3 DFA|1 D3 D3 :|2\
D3 D2||
B|c3 cBc|cAG ABc|d2e d2e|dcA (3DEF G|
cBc dcB|cAG FGE|D3 DFA|D3 D2 :|
g|fdd fed|fdd fed|c2d fed|(5B/^c/d/e/f/ gfd|
fdd fed|fdd fed|(5B/^c/d/e/f/ gag|edd d2 :|
c|A2D A2G|F3 FED|E3 EFD|EDE EFG|
(4A/B/A/D/ A2G|F3 GEA|D3 DFA|1 D3 D2 :|2\ D3 D3||
